X: 07
T: Evelyn's Strathspey
C: John Renton 2000
T: Dance: Evelyn's Dance
N: A birthday surprise for Evelyn Ramwell.
B: Social Dances 2002
R: strathspey
Z: 2014 John Chambers <jc:trillian.mit.edu>
M: C
L: 1/8
K: D
(3ABc |\
"D"d>c B>A F<A A>B | "D7"A>F E>D "G"B,<D D>B, |\
"D/F#"A,>B, D>E "D"F<A "G"d>B | "D/F#"A>F "E7/G#"E<D "A7"E2 (3ABc |
"D"d>c B>A F<A A>B | "D7"A>F E>D "G"B,<D D>B, |\
"D/F#"A,>B, D>E "D"F<A "G"d>B | "A7"A>F E<D "D"D2 |]
"F#7"F2 |\
"Bm"B>c d>B "Bm/D"F<B B2 | "F#"B>A F>E "Bm"F<B, B,2 |\
"A"A,>B, C>D E<A (3Acd | "E7"e>d c>B "A7"A2 (3ABc |
"D"d>c B>A F<A A>B | "D7"A>F E>D "G"B,<D D>B, |\
"D/F#"A,>B, D>E "D"F<A "G"d>B | "A7"A>F E<D "D"D2 |]
